X:1
T:My Dancing Day
M:3/4
L:1/4
K:G
 D| G F G| A- B c| d- c B| A2 B| G- F G| A- B c| d- c B| A2B/2-c/2|\
 d2 B| c2 B| A- G B| A2 D| G2 A| B- c d| c- B A| G2 B| A2B/2-c/2| d3|\
 B- G B| A2 B| A2 B| A2 D| G2 A| B- c d| c- B A| G2||
